X:023
T:Trip to Kilkenny
C:John McCusker
S:Travelling Folk, Radio Scotland
M:6/8
L:1/8
K:A
cB|ABA Aca|f2f fef|a2f ecA|fec Bcd|
cBA cee|f2f fef|a2f ecA|BcB A:|
cd|efe Ace|f>ff dfa|g>gg egb|agf ecd|
efe Ace|f>ff dfa|g>gg egb|aec Acd|
efe Ace|f2f dfa|g2g egb|agf ecB|
<end>
<start>
